icons/editor-attatchment-1-filled.svg

<svg width="24" height="24" viewBox="0 0 24 24" fill="none" xmlns="http://www.w3.org/2000/svg">
<g id="attatchment-01">
<path id="Icon" d="M20.2975 12.241L12.3713 20.1671C10.214 22.3244 6.97858 22.5792 4.77904 20.3796C2.62171 18.2223 2.90209 15.0969 5.10163 12.8974L14.0114 3.98759C15.3751 2.62396 17.5704 2.62396 18.934 3.98759C20.2976 5.35122 20.2976 7.54654 18.934 8.91017L9.86777 17.9764C9.1881 18.6561 8.08614 18.6561 7.40648 17.9764C6.72681 17.2968 6.72681 16.1948 7.40648 15.5151L15.4891 7.43255" stroke="black" stroke-width="2" stroke-linecap="round"/>
</g>
</svg>

<svg xmlns="http://www.w3.org/2000/svg" width="24" height="24" fill="none" viewBox="0 0 24 24"><path stroke="currentColor" stroke-linecap="round" stroke-width="2" d="m20.298 12.241-7.927 7.926c-2.157 2.157-5.392 2.412-7.592.213-2.157-2.158-1.877-5.283.323-7.483l8.91-8.91a3.473 3.473 0 0 1 4.922 0 3.473 3.473 0 0 1 0 4.923l-9.066 9.066a1.74 1.74 0 1 1-2.462-2.46l8.083-8.083"/></svg>
